X:1
T:Dynamics
C:Ali Corbin
M:4/4
L:1/1
Q:1/1=100
%%MIDI program 71 % Clarinet
K:C transpose=-2
!pppp!C|!ppp!D|!pp!E|!p!F|!mp!G|!mf!A|!f!B|!ff!c|!fff!B|!ffff!A|!sfz!G|!accent!F|!fermata!E|D|!p!C|
!crescendo(!C|D|E|F|G|A|B|!crescendo)!c|!diminuendo(!B|A|G|F|E|D|!diminuendo)!C||

